icons/mobile/24/svg/bookmark-fill-24.svg

<svg width="24" height="24" viewBox="0 0 24 24" fill="none" xmlns="http://www.w3.org/2000/svg">
<path d="M11.9996 3.00098C12.6886 3.00098 13.2759 3.39906 13.5309 4.03906L15.2545 8.37109L20.4469 8.70703C21.1148 8.75103 21.671 9.17083 21.9 9.80371C22.123 10.4207 21.9677 11.0823 21.4967 11.5303C21.2108 11.8002 20.9095 12.0718 20.5856 12.3438C19.5606 13.2047 18.4509 13.9683 17.2799 14.6143L18.5358 19.5439C18.7008 20.1919 18.4758 20.846 17.9488 21.251C17.4118 21.6649 16.7079 21.7119 16.1139 21.3789C15.491 21.0289 14.8832 20.6518 14.3082 20.2559C13.5844 19.758 12.8831 19.2173 12.2262 18.6475C12.0922 18.5285 11.908 18.5285 11.774 18.6475C11.1171 19.2174 10.4159 19.7579 9.692 20.2559C9.11711 20.6508 8.50922 21.029 7.88634 21.3789C7.62442 21.5259 7.34111 21.5986 7.05919 21.5986C6.7033 21.5986 6.35132 21.4818 6.05138 21.251C5.5244 20.847 5.29853 20.1919 5.46349 19.5439L6.72032 14.6143C5.54932 13.9683 4.43868 13.2048 3.41368 12.3438C3.08978 12.0718 2.78847 11.8002 2.50255 11.5303C2.0316 11.0823 1.87722 10.4207 2.10021 9.80371C2.32928 9.17089 2.88545 8.75002 3.55333 8.70703L8.74474 8.37109L10.4693 4.03906C10.7243 3.3992 11.3108 3.0011 11.9996 3.00098Z" fill="black"/>
</svg>

<!-- This Source Code Form is subject to the terms of the Mozilla Public
   - License, v. 2.0. If a copy of the MPL was not distributed with this
   - file, You can obtain one at http://mozilla.org/MPL/2.0/. -->
<svg xmlns="http://www.w3.org/2000/svg" width="24" height="24" fill="none" viewBox="0 0 24 24">
    <path fill="#000" d="M12 3.001a1.62 1.62 0 0 1 1.53 1.038l1.725 4.332 5.192.336A1.64 1.64 0 0 1 21.9 9.804a1.6 1.6 0 0 1-.403 1.726 20.7 20.7 0 0 1-4.217 3.084l1.256 4.93a1.62 1.62 0 0 1-.587 1.707 1.65 1.65 0 0 1-1.835.128 23.5 23.5 0 0 1-3.888-2.732.33.33 0 0 0-.452 0 23.6 23.6 0 0 1-3.888 2.732 1.65 1.65 0 0 1-1.835-.128 1.62 1.62 0 0 1-.588-1.707l1.257-4.93a20.7 20.7 0 0 1-4.217-3.084A1.6 1.6 0 0 1 2.1 9.804a1.64 1.64 0 0 1 1.453-1.097l5.192-.336 1.724-4.332A1.62 1.62 0 0 1 12 3.001" />
</svg>
